X: 1
T: Catchin' Rabbits
C: Ian Powrie
Z: 1999 John Chambers <jc:trillian.mit.edu>
R: reel
M: C|
L: 1/8
K: D
|: A2 |\
"D"FAAB "A7"ABde | "D"f2ef edBA | "Em"Beed e2ef | gefd "A7"edBA |\
"D"FAAB "A7"ABde | "Bm"f2ef edBA |
"Em"Beef gefd | "A7"eAce "D"d2 :|\
ag |\
"D"f2ef "G"edBd | "D"ABde f2ed | "Em"Beed e2ef | gefd "A7"e2ag |
"D"f2ef "G"edBd | "D"ABde f2ed | "Em"Beef gefd | "A7"eAce "D"d2 |]\
ag |\
"D"f2ef "G"edBd | "D"ABde f2ed |
"Em"Beed e2ef | gefd "A7"edBA |\
"D"FAAB "A7"ABde | "Bm"f2ef edBA | "Em"Beef gefd | "A7"eAce "D"d2 |]
